X:1
T:The Boys From Wexford
L:1/8
Q:1/4=140
M:4/4
K:G
G3 A GF E<D | d3 e d2 c2 | B2 G2 BA GF | E4 E2 F2 |
 G3 A GF E<D | d3 e d2 c2 | B2 G2 BA GF |G4 G4 ||
 z8 | z8 | z8 | z8 |
 G6 z2 | c6 z2 | d4 F4 | G6 z2 ||
